X:1
T:Warner, LM
T:Warner, LM
T:Arr. from Rossini by George Kingsley, 1853
T:Public Domain Courtesy of the Cyber Hymnal™
C:Arr. from Rossini by George Kingsley, 1853
Z:Public Domain
Z:Courtesy of the Cyber Hymnal™
%%score ( 1 2 ) ( 3 4 )
L:1/8
Q:1/4=115
M:3/4
K:G
V:1 treble 
V:2 treble 
V:3 bass 
V:4 bass 
V:1
 [Gd]2 | (d2 e2) [Gc]2 | [GB]4 [GB]2 | ([GB]2 [Ac]2) [FA]2 | G4 D2 | [DG]4 [DA]2 | [DB]4 [GB]2 | %7
 (c2 d2) [Ge]2 | [FA]4 D2 | (c2 d2) [DB]2 | [DA]4 [FA]2 | (A2 B2) G2 | [DF]4 [Dd]2 | %13
 (d2 e2) [Gc]2 | B2 c2 [EA]2 | [DG]4 [CF]2 | [B,G]4 |] %17
V:2
 x2 | G4 x2 | x6 | x6 | G4 D2 | x6 | x6 | G4 x2 | x4 D2 | D4 x2 | x6 | F4 G2 | x6 | G4 x2 | G4 x2 | %15
 x6 | x4 |] %17
V:3
 [G,B,]2 | (B,2 C2) [G,E]2 | [G,D]4 [B,,D]2 | [D,D]4 [D,C]2 | [G,,B,]4 F,2 | [B,,G,]4 [D,F,]2 | %6
 G,4 [=F,D]2 | ([E,C]2 [D,B,]2) [C,C]2 | [D,A,]4 D,2 | (A,2 B,2) [D,G,]2 | [D,F,]4 D,2 | %11
 (C2 D2) [D,B,]2 | [D,A,]4 [F,A,]2 | (B,2 C2) [G,E]2 | [G,D]2 [C,E]2 [C,C]2 | [D,B,]4 [D,A,]2 | %16
 [G,,G,]2 x2 |] %17
V:4
 x2 | G,4 x2 | x6 | x6 | x4 (D,C,) | x6 | G,4 x2 | x6 | x4 D,2 | D,4 x2 | x4 D,2 | D,4 x2 | x6 | %13
 G,4 x2 | x6 | x6 | x4 |] %17

